brandFactory_export/1.Light/Pospago_1Light.svg

<?xml version="1.0" encoding="UTF-8"?>
<svg width="24px" height="24px" viewBox="0 0 24 24" version="1.1" xmlns="http://www.w3.org/2000/svg" xmlns:xlink="http://www.w3.org/1999/xlink">
    <title>1.Light/Pospago_1Light</title>
    <g id="Symbols" stroke="none" stroke-width="1" fill="none" fill-rule="evenodd">
        <g id="1.Light/Pospago_1Light" fill="#5CB615" fill-rule="nonzero">
            <path d="M14.1613445,7.83373366e-13 C15.3848739,7.83373366e-13 16.2756303,0.299159664 16.8840336,0.914285714 C17.4823529,1.52268908 17.7747899,2.40336134 17.7747899,3.61344538 L17.7738908,3.932 L18.4168067,3.93277311 L18.4168067,3.93277311 C18.4468854,3.93277311 18.4760743,3.93677709 18.5038668,3.94427838 C18.5607306,3.95968202 18.6126317,3.98967587 18.6554622,4.0302521 L21.9327731,7.30756303 C21.9966387,7.37142857 22.0302521,7.45546218 22.0302521,7.54621849 L22.0302521,15.687395 C22.0302521,16.1277311 21.7579832,16.4033613 21.3176471,16.4033613 L17.7738908,16.403 L17.7747899,20 C17.7747899,21.2436975 17.4823529,22.1378151 16.8806723,22.7361345 C16.2857143,23.3277311 15.394958,23.6134454 14.1613445,23.6134454 L5.64033613,23.6134454 C4.40672269,23.6134454 3.51596639,23.3277311 2.9210084,22.7361345 C2.31932773,22.1378151 2.02689076,21.2436975 2.02689076,20 L2.02689076,3.61344538 C2.02689076,2.37983193 2.31596639,1.49243697 2.91428571,0.894117647 C3.51260504,0.295798319 4.40336134,7.83373366e-13 5.64033613,7.83373366e-13 L14.1613445,7.83373366e-13 Z M14.1579832,0.672268908 L5.64033613,0.672268908 C4.59159664,0.672268908 3.85546218,0.900840336 3.38823529,1.36806723 C2.9210084,1.83529412 2.69915966,2.56806723 2.69915966,3.61344538 L2.69915966,20 C2.69915966,22.0907563 3.54957983,22.9411765 5.64033613,22.9411765 L14.1613445,22.9411765 C16.2487395,22.9411765 17.102521,22.0907563 17.102521,20 L17.1018908,16.403 L13.5663866,16.4033613 C13.1092437,16.4033613 12.8369748,16.1277311 12.8369748,15.6672269 L12.8369748,4.65882353 C12.8369748,4.21176471 13.1159664,3.93277311 13.5663866,3.93277311 L17.1018908,3.932 L17.102521,3.61344538 C17.102521,2.58823529 16.8739496,1.85882353 16.4033613,1.38487395 C15.9260504,0.904201681 15.1932773,0.672268908 14.1579832,0.672268908 Z M9.89579832,18.8033613 C10.5008403,18.8033613 10.8941176,19.1226891 10.8941176,19.805042 C10.8941176,20.1344538 10.8033613,20.3764706 10.6420168,20.5411765 C10.4672269,20.7193277 10.2117647,20.8067227 9.89579832,20.8067227 C9.57983193,20.8067227 9.32436975,20.7193277 9.14957983,20.5411765 C8.98823529,20.3764706 8.89747899,20.1310924 8.89747899,19.805042 C8.89747899,19.1226891 9.2907563,18.8033613 9.89579832,18.8033613 Z M18.0798908,4.605 L13.5663866,4.60504202 C13.5495798,4.60504202 13.5294118,4.60504202 13.512605,4.60840336 L13.5096639,4.63361345 L13.5096639,4.63361345 L13.5092437,15.6672269 C13.5092437,15.687395 13.5092437,15.707563 13.512605,15.7277311 C13.5294118,15.7310924 13.5495798,15.7310924 13.5663866,15.7310924 L21.3142857,15.7310924 C21.3277311,15.7310924 21.3411765,15.7310924 21.3546218,15.7277311 C21.3579832,15.7142857 21.3579832,15.7008403 21.3579832,15.687395 L21.3578908,7.882 L20.3831933,7.88235294 C19.6369748,7.88235294 19.0621849,7.68403361 18.6689076,7.2907563 C18.2756303,6.89747899 18.0806723,6.32268908 18.0806723,5.57983193 L18.0798908,4.605 Z M19.7344538,13.4453782 C19.9193277,13.4453782 20.0705882,13.5966387 20.0705882,13.7815126 C20.0705882,13.9663866 19.9193277,14.1176471 19.7344538,14.1176471 L15.1462185,14.1176471 C14.9613445,14.1176471 14.810084,13.9663866 14.810084,13.7815126 C14.810084,13.5966387 14.9613445,13.4453782 15.1462185,13.4453782 L19.7344538,13.4453782 Z M19.7344538,11.4789916 C19.9193277,11.4789916 20.0705882,11.6302521 20.0705882,11.8151261 C20.0705882,12 19.9193277,12.1512605 19.7344538,12.1512605 L15.1462185,12.1512605 C14.9613445,12.1512605 14.810084,12 14.810084,11.8151261 C14.810084,11.6302521 14.9613445,11.4789916 15.1462185,11.4789916 L19.7344538,11.4789916 Z M19.7344538,9.51260504 C19.9193277,9.51260504 20.0705882,9.66386555 20.0705882,9.8487395 C20.0705882,10.0336134 19.9193277,10.1848739 19.7344538,10.1848739 L15.1462185,10.1848739 C14.9613445,10.1848739 14.810084,10.0336134 14.810084,9.8487395 C14.810084,9.66386555 14.9613445,9.51260504 15.1462185,9.51260504 L19.7344538,9.51260504 Z M20.8828908,7.21 L18.7528908,5.082 L18.7529412,5.57983193 C18.7529412,6.70588235 19.2571429,7.21008403 20.3831933,7.21008403 L20.8828908,7.21 Z" id="Pospago_1Light"></path>
        </g>
    </g>
</svg>

<svg width="24" height="24" viewBox="0 0 24 24" xmlns="http://www.w3.org/2000/svg"><path d="M14.161 0c1.224 0 2.115.3 2.723.914.598.609.89 1.49.89 2.7v.318h.643a.357.357 0 01.239.097l3.277 3.279a.333.333 0 01.097.238v8.141c0 .44-.272.716-.712.716h-3.544V20c0 1.244-.292 2.138-.893 2.736-.595.592-1.486.877-2.72.877h-8.52c-1.234 0-2.125-.285-2.72-.877-.602-.598-.894-1.492-.894-2.736V3.613c0-1.233.289-2.12.887-2.719C3.513.296 4.404 0 5.64 0h8.521zm-.003.672H5.64c-1.048 0-1.785.229-2.252.696-.467.467-.689 1.2-.689 2.245V20c0 2.09.85 2.941 2.941 2.941h8.521c2.088 0 2.942-.85 2.942-2.941l-.001-3.597h-3.536c-.457 0-.729-.275-.729-.736V4.66c0-.447.279-.726.73-.726l3.535-.001v-.319c0-1.025-.228-1.754-.699-2.228-.477-.48-1.21-.713-2.245-.713zM9.896 18.803c.605 0 .998.32.998 1.002 0 .33-.09.571-.252.736-.175.178-.43.266-.746.266s-.572-.088-.746-.266c-.162-.165-.253-.41-.253-.736 0-.682.394-1.002.999-1.002zM18.08 4.605h-4.514c-.016 0-.037 0-.053.003l-.003.026v11.033c0 .02 0 .04.003.06a.29.29 0 00.053.004h7.748c.014 0 .027 0 .04-.003.004-.014.004-.027.004-.04V7.881h-.975c-.746 0-1.32-.198-1.714-.591-.393-.394-.588-.968-.588-1.711l-.001-.975zm1.654 8.84a.337.337 0 010 .672h-4.588a.337.337 0 01-.336-.335c0-.185.151-.337.336-.337h4.588zm0-1.966c.185 0 .337.151.337.336a.337.337 0 01-.337.336h-4.588a.337.337 0 01-.336-.336c0-.185.151-.336.336-.336h4.588zm0-1.966c.185 0 .337.15.337.336a.337.337 0 01-.337.336h-4.588a.337.337 0 01-.336-.336c0-.185.151-.336.336-.336h4.588zm1.149-2.303l-2.13-2.128v.498c0 1.126.504 1.63 1.63 1.63h.5z" fill="#5CB615" fill-rule="nonzero"/></svg>
